X:138
T:Pigau'r Dur - The Points of Steel
M:2/4
L:1/8
Q:220
C:Trad.
R:Processional
K:D
A>B AA | A/G/A/B/ AG/A/ | BA GF | E2 E2 | F>G FG | A/G/A/
B/ Ad | GF E>D | D2- D2 :|| E>F EE | F>G FF | Bd cB |
B ^A2 B | c2 B2 | cc B2 | Ed cB | =A3 B/c/ | d2 dc |
B>c BA | BA GF | E2 E2 | F>G FG | A/G/A/B/ Ad | GF E>D
| D2- D2 ||
